**kern	**silbe	**harmony	**phrase	**leadinstrument	**rhyme	**timestamp	**harte
*ICvox	*	*M4/4	*	*	*	*	*M4/4
*VRlead	*	*	*	*	*	*	*
*Hstimme	*	*	*	*	*	*	*
*D:	*	*D:	*	*	*	*	*D:
*M4/4	*	*	*	*	*	*	*
*clefF4	*	*	*	*	*	*	*
r;	.	1r;	.	r	.	0	N.C.
=1	=1	=1	=1	=1	=1	=1	=1
*>Letter>A	*>Letter>A	*>Letter>A	*>Letter>A	*>Letter>A	*>Letter>A	*>Letter>A	*>Letter>A
*>Label>Intro	*>Label>Intro	*>Label>Intro	*>Label>Intro	*>Label>Intro	*>Label>Intro	*>Label>Intro	*>Label>Intro
1r	.	1DM	newline	guitar	.	0.07	D:maj
=2	=2	=2	=2	=2	=2	=2	=2
1r	.	1DMm	.	guitar	.	2.105	D:7/3
=3	=3	=3	=3	=3	=3	=3	=3
1r	.	1GM	.	guitar	.	4.14	G:maj
=4	=4	=4	=4	=4	=4	=4	=4
1r	.	1AM	.	guitar	.	6.175	A:maj
=5	=5	=5	=5	=5	=5	=5	=5
1r	.	1DM	newline	guitar	.	8.209	D:maj
=6	=6	=6	=6	=6	=6	=6	=6
1r	.	1DMm	.	guitar	.	10.116	D:7/3
=7	=7	=7	=7	=7	=7	=7	=7
1r	.	1GM	.	guitar	.	12.023	G:maj
=8	=8	=8	=8	=8	=8	=8	=8
1r	.	1AM	.	guitar	.	13.929	A:maj
=9	=9	=9	=9	=9	=9	=9	=9
*>Letter>A	*>Letter>A	*>Letter>A	*>Letter>A	*>Letter>A	*>Letter>A	*>Letter>A	*>Letter>A
*>Label>Verse	*>Label>Verse	*>Label>Verse	*>Label>Verse	*>Label>Verse	*>Label>Verse	*>Label>Verse	*>Label>Verse
1r	.	1DM	newline	voice	.	15.836	D:maj
=10	=10	=10	=10	=10	=10	=10	=10
1r	.	1DM	.	voice	.	17.742	D:maj/3
=11	=11	=11	=11	=11	=11	=11	=11
1r	.	1GM	.	voice	.	19.649	G:maj
=12	=12	=12	=12	=12	=12	=12	=12
1r	.	1AM	.	voice	.	21.555	A:maj
=13	=13	=13	=13	=13	=13	=13	=13
1r	.	1DM	newline	voice	.	23.462	D:maj
=14	=14	=14	=14	=14	=14	=14	=14
1r	.	1DM	.	voice	.	25.329	D:maj/3
=15	=15	=15	=15	=15	=15	=15	=15
1r	.	1GM	.	voice	.	27.196	G:maj
=16	=16	=16	=16	=16	=16	=16	=16
2.r	.	1AM	.	voice	.	29.063	A:maj
4D	Here's	.	.	.	.	.	.
=17	=17	=17	=17	=17	=17	=17	=17
*>Letter>B	*>Letter>B	*>Letter>B	*>Letter>B	*>Letter>B	*>Letter>B	*>Letter>B	*>Letter>B
*>Label>Prechorus	*>Label>Prechorus	*>Label>Prechorus	*>Label>Prechorus	*>Label>Prechorus	*>Label>Prechorus	*>Label>Prechorus	*>Label>Prechorus
8D	wish-	1DM	newline	voice	.	30.929	D:maj
4E	-ing	.	.	.	.	.	.
4F#	you	.	.	.	.	.	.
4G	the	.	.	.	.	.	.
[8A	blu-	.	.	.	.	.	.
=18	=18	=18	=18	=18	=18	=18	=18
8A]	_	1F#Mm	.	voice	.	32.827	F#:7
4d	-est	.	.	.	.	.	.
4d	sky	.	.	.	A	.	.
4r	.	.	.	.	.	.	.
[8G	and	.	.	.	.	.	.
=19	=19	=19	=19	=19	=19	=19	=19
8G]	_	1GM	.	voice	.	34.724	G:maj
4G	ho-	.	.	.	.	.	.
8G	-ping	.	.	.	.	.	.
4G	some-	.	.	.	.	.	.
4A	-thing	.	.	.	.	.	.
=20	=20	=20	=20	=20	=20	=20	=20
8G	bet-	1AM	.	voice	.	36.621	A:maj
4F#	-ter	.	.	.	.	.	.
4E	comes	.	.	.	.	.	.
4F#	to-	.	.	.	.	.	.
[8F#	-mor-	.	.	.	.	.	.
=21	=21	=21	=21	=21	=21	=21	=21
8F#]	_	1DM	newline	voice	.	38.519	D:maj
4AA	-ow	.	.	.	.	.	.
8r	.	.	.	.	.	.	.
8D	Ho-	.	.	.	.	.	.
8E	-ping	.	.	.	.	.	.
8F#	all	.	.	.	.	.	.
8G	the	.	.	.	.	.	.
=22	=22	=22	=22	=22	=22	=22	=22
8A	ver-	1F#Mm	.	voice	.	40.401	F#:7
4d	-ses	.	.	.	.	.	.
4d	rhyme	.	.	.	A	.	.
8r	.	.	.	.	.	.	.
12r	.	.	.	.	.	.	.
12F#	and	.	.	.	.	.	.
12F#	the	.	.	.	.	.	.
=23	=23	=23	=23	=23	=23	=23	=23
8G	ver-	1GM	.	voice	.	42.283	G:maj
4G	-y	.	.	.	.	.	.
4G	best	.	.	.	.	.	.
4A	of	.	.	.	.	.	.
[8G	chor-	.	.	.	.	.	.
=24	=24	=24	=24	=24	=24	=24	=24
8G]	_	1AM	.	voice	.	44.165	A:maj
4F#	-us-	.	.	.	.	.	.
4E	-es	.	.	.	.	.	.
4G	to	.	.	.	.	.	.
8r	.	.	.	.	.	.	.
=25	=25	=25	=25	=25	=25	=25	=25
8r	.	1Bm	newline	voice	.	46.048	B:min
4F#	fol-	.	.	.	.	.	.
8B	-low	.	.	.	.	.	.
4c#	all	.	.	.	.	.	.
8d	the	.	.	.	.	.	.
[8c#	doubt	.	.	.	.	.	.
=26	=26	=26	=26	=26	=26	=26	=26
8c#]	_	1Bm	.	voice	.	47.968	B:min(11)/7
4c#	and	.	.	.	.	.	.
4d	sad-	.	.	.	.	.	.
4e	-ness	.	.	.	.	.	.
8r	.	.	.	.	.	.	.
=27	=27	=27	=27	=27	=27	=27	=27
8d	I	1Bm	.	voice	.	49.889	B:min/b7
4d	know	.	.	.	.	.	.
8d	that	.	.	.	.	.	.
8e	bet-	.	.	.	.	.	.
4f#	-ter	.	.	.	.	.	.
[8e	things	.	.	.	.	.	.
=28	=28	=28	=28	=28	=28	=28	=28
8e]	_	1EMm	.	voice	.	51.81	E:7
4e	are	.	.	.	.	.	.
4B	on	.	.	.	.	.	.
4d	the	.	.	.	.	.	.
[8c#	way	.	.	.	B	.	.
=29	=29	=29	=29	=29	=29	=29	=29
4c#]	_	1AM	newline	voice	.	53.731	A:maj
4r	.	.	.	.	.	.	.
2r	.	.	.	.	.	.	.
=30	=30	=30	=30	=30	=30	=30	=30
2r	.	1GM	.	voice	.	55.581	G:maj
4r	.	.	.	.	.	.	.
4D	Here's	.	.	.	.	.	.
=31	=31	=31	=31	=31	=31	=31	=31
*>Letter>B	*>Letter>B	*>Letter>B	*>Letter>B	*>Letter>B	*>Letter>B	*>Letter>B	*>Letter>B
*>Label>Prechorus	*>Label>Prechorus	*>Label>Prechorus	*>Label>Prechorus	*>Label>Prechorus	*>Label>Prechorus	*>Label>Prechorus	*>Label>Prechorus
4D	ho-	1DM	newline	voice	.	57.432	D:maj
8E	-ping	.	.	.	.	.	.
4F#	all	.	.	.	.	.	.
4G	the	.	.	.	.	.	.
[8A	days	.	.	.	B	.	.
=32	=32	=32	=32	=32	=32	=32	=32
8A]	_	1F#Mm	.	voice	.	59.342	F#:7
4d	a-	.	.	.	.	.	.
4d	-head	.	.	.	C	.	.
4r	.	.	.	.	.	.	.
[8G	won't	.	.	.	.	.	.
=33	=33	=33	=33	=33	=33	=33	=33
8G]	_	1GM	.	voice	.	61.251	G:maj
4G	be	.	.	.	.	.	.
8G	as	.	.	.	.	.	.
8G	bit-	.	.	.	.	.	.
4A	-ter	.	.	.	.	.	.
[8G	as	.	.	.	.	.	.
=34	=34	=34	=34	=34	=34	=34	=34
8G]	_	1AM	.	voice	.	63.16	A:maj
4F#	the	.	.	.	.	.	.
4E	days	.	.	.	.	.	.
4F#	be-	.	.	.	.	.	.
[8F#	-hind	.	.	.	A	.	.
=35	=35	=35	=35	=35	=35	=35	=35
8F#]	_	1DM	newline	voice	.	65.07	D:maj
4AA	you	.	.	.	.	.	.
8r	.	.	.	.	.	.	.
8D	Be	.	.	.	.	.	.
8E	an	.	.	.	.	.	.
8F#	opt-	.	.	.	.	.	.
8G	-i-	.	.	.	.	.	.
=36	=36	=36	=36	=36	=36	=36	=36
8A	-mist	1F#Mm	.	voice	D	66.975	F#:7
4d	in-	.	.	.	.	.	.
4d	-stead	.	.	.	C	.	.
4r	.	.	.	.	.	.	.
[8G	And	.	.	.	.	.	.
=37	=37	=37	=37	=37	=37	=37	=37
8G]	_	1GM	.	voice	.	68.879	G:maj
4G	some-	.	.	.	.	.	.
8G	-how	.	.	.	.	.	.
8G	hap-	.	.	.	.	.	.
4A	-pi-	.	.	.	.	.	.
[8G	-ness	.	.	.	D	.	.
=38	=38	=38	=38	=38	=38	=38	=38
8G]	_	1AM	.	voice	.	70.784	A:maj
4F#	will	.	.	.	.	.	.
4E	find	.	.	.	A	.	.
4F#	you	.	.	.	.	.	.
8r	.	.	.	.	.	.	.
=39	=39	=39	=39	=39	=39	=39	=39
8r	.	1Bm	newline	voice	.	72.688	B:min
8F#	For-	.	.	.	.	.	.
8F#	-get	.	.	.	.	.	.
4B	what	.	.	.	.	.	.
4c#	hap-	.	.	.	.	.	.
8d	-pened	.	.	.	.	.	.
=40	=40	=40	=40	=40	=40	=40	=40
4c#	yes-	1Bm	.	voice	D	74.595	B:min(11)/7
8c#	-ter-	.	.	.	.	.	.
4d	--day	.	.	.	B	.	.
8r	.	.	.	.	.	.	.
4e	I	.	.	.	.	.	.
=41	=41	=41	=41	=41	=41	=41	=41
4d	know	1Bm	.	voice	.	76.502	B:min/b7
8d	that	.	.	.	.	.	.
4e	bet-	.	.	.	.	.	.
4f#	-ter	.	.	.	.	.	.
[8e	things	.	.	.	.	.	.
=42	=42	=42	=42	=42	=42	=42	=42
8e]	_	1EMm	.	voice	.	78.41	E:7
4e	are	.	.	.	.	.	.
4B	on	.	.	.	.	.	.
4d	the	.	.	.	.	.	.
[8c#	way	.	.	.	B	.	.
=43	=43	=43	=43	=43	=43	=43	=43
4c#]	_	1AM	newline	voice	.	80.317	A:maj
4r	.	.	.	.	.	.	.
2r	.	.	.	.	.	.	.
=44	=44	=44	=44	=44	=44	=44	=44
8r	.	1GM	.	voice	.	82.17	G:maj
8g	It's	.	.	.	.	.	.
8g	real-	.	.	.	.	.	.
8g	-ly	.	.	.	.	.	.
8g	good	.	.	.	.	.	.
8g	to	.	.	.	.	.	.
8g	see	.	.	.	.	.	.
8g	you	.	.	.	.	.	.
=45	=45	=45	=45	=45	=45	=45	=45
*>Letter>C	*>Letter>C	*>Letter>C	*>Letter>C	*>Letter>C	*>Letter>C	*>Letter>C	*>Letter>C
*>Label>Chorus	*>Label>Chorus	*>Label>Chorus	*>Label>Chorus	*>Label>Chorus	*>Label>Chorus	*>Label>Chorus	*>Label>Chorus
8g	rock-	1DM	newline	voice	.	84.024	D:maj
4f#	-ing	.	.	.	.	.	.
4e	out	.	.	.	.	.	.
4f#	and	.	.	.	.	.	.
[8g	ha-	.	.	.	.	.	.
=46	=46	=46	=46	=46	=46	=46	=46
8g]	_	2GM	.	voice	.	85.9	G:maj
4f#	-ving	.	.	.	.	.	.
4.e	fun	.	.	.	E	.	.
.	.	2AM	.	voice	.	86.838	A:maj
4r	.	.	.	.	.	.	.
=47	=47	=47	=47	=47	=47	=47	=47
8g	Li-	1DM	.	voice	.	87.776	D:maj
4f#	-ving	.	.	.	.	.	.
4e	like	.	.	.	.	.	.
4f#	you	.	.	.	.	.	.
[8g	just	.	.	.	.	.	.
=48	=48	=48	=48	=48	=48	=48	=48
8g]	_	2GM	.	voice	.	89.653	G:maj
4f#	be-	.	.	.	.	.	.
4.e	-gun	.	.	.	E	.	.
.	.	2AM	.	voice	.	90.591	A:maj
8r	.	.	.	.	.	.	.
8A	Ac-	.	.	.	.	.	.
=49	=49	=49	=49	=49	=49	=49	=49
4g	-cept	1DM	newline	voice	.	91.529	D:maj
8f#	your	.	.	.	.	.	.
4e	life	.	.	.	.	.	.
4f#	and	.	.	.	.	.	.
[8g	what	.	.	.	.	.	.
=50	=50	=50	=50	=50	=50	=50	=50
8g]	_	2GM	.	voice	.	93.379	G:maj
4f#	it	.	.	.	.	.	.
4.e	brings	.	.	.	F	.	.
.	.	2AM	.	voice	.	94.305	A:maj
8r	.	.	.	.	.	.	.
8A	I	.	.	.	.	.	.
=51	=51	=51	=51	=51	=51	=51	=51
4g	hope	1DM	.	voice	.	95.23	D:maj
8f#	to-	.	.	.	.	.	.
4e	-mor-	.	.	.	.	.	.
4f#	-row	.	.	.	.	.	.
[8g	you'll	.	.	.	.	.	.
=52	=52	=52	=52	=52	=52	=52	=52
8g]	_	2GM	.	voice	.	97.08	G:maj
2f#	find	.	.	.	.	.	.
.	.	2AM	.	voice	.	98.006	A:maj
8f#	bet-	.	.	.	.	.	.
4e	-ter	.	.	.	.	.	.
=53	=53	=53	=53	=53	=53	=53	=53
*>Letter>A	*>Letter>A	*>Letter>A	*>Letter>A	*>Letter>A	*>Letter>A	*>Letter>A	*>Letter>A
*>Label>Trans	*>Label>Trans	*>Label>Trans	*>Label>Trans	*>Label>Trans	*>Label>Trans	*>Label>Trans	*>Label>Trans
2d	things	1DM	newline	guitar	F	98.931	D:maj
2r	.	.	.	.	.	.	.
=54	=54	=54	=54	=54	=54	=54	=54
2.r	.	1DM	.	guitar	.	100.822	D:maj/3
8r	.	.	.	.	.	.	.
8A	I	.	.	.	.	.	.
=55	=55	=55	=55	=55	=55	=55	=55
4g	know	1GM	.	guitar	.	102.714	G:maj
8g	to-	.	.	.	.	.	.
4g	-mor-	.	.	.	.	.	.
4g	-row	.	.	.	.	.	.
[8g	you'll	.	.	.	.	.	.
=56	=56	=56	=56	=56	=56	=56	=56
8g]	_	1AM	.	guitar	.	104.606	A:maj
[4.f#	find	.	.	.	.	.	.
6f#]	_	.	.	.	.	.	.
6f#	bet-	.	.	.	.	.	.
6e	-ter	.	.	.	.	.	.
=57	=57	=57	=57	=57	=57	=57	=57
2d	things	1DM	newline	guitar	F	106.497	D:maj
2r	.	.	.	.	.	.	.
=58	=58	=58	=58	=58	=58	=58	=58
1r	.	1DM	.	guitar	.	108.362	D:maj/3
=59	=59	=59	=59	=59	=59	=59	=59
1r	.	1GM	.	guitar	.	110.227	G:maj
=60	=60	=60	=60	=60	=60	=60	=60
2r	.	1AM	.	guitar	.	112.091	A:maj
4r	.	.	.	.	.	.	.
4D	Here's	.	.	.	.	.	.
=61	=61	=61	=61	=61	=61	=61	=61
*>Letter>B	*>Letter>B	*>Letter>B	*>Letter>B	*>Letter>B	*>Letter>B	*>Letter>B	*>Letter>B
*>Label>Prechorus	*>Label>Prechorus	*>Label>Prechorus	*>Label>Prechorus	*>Label>Prechorus	*>Label>Prechorus	*>Label>Prechorus	*>Label>Prechorus
8D	wish-	1DM	newline	voice	.	113.956	D:maj
4E	-ing	.	.	.	.	.	.
4F#	you	.	.	.	.	.	.
4G	the	.	.	.	.	.	.
[8A	blu-	.	.	.	.	.	.
=62	=62	=62	=62	=62	=62	=62	=62
8A]	_	1F#Mm	.	voice	.	115.854	F#:7
4d	-est	.	.	.	d	.	.
4d	sky	.	.	.	A	.	.
8r	.	.	.	.	.	.	.
8r	.	.	.	.	.	.	.
[8G	And	.	.	.	.	.	.
=63	=63	=63	=63	=63	=63	=63	=63
8G]	_	1GM	.	voice	.	117.751	G:maj
4G	ho-	.	.	.	.	.	.
8G	-ping	.	.	.	.	.	.
4G	some-	.	.	.	.	.	.
4A	-thing	.	.	.	.	.	.
=64	=64	=64	=64	=64	=64	=64	=64
8G	bet-	1AM	.	voice	.	119.649	A:maj
4F#	-ter	.	.	.	.	.	.
4E	comes	.	.	.	.	.	.
4F#	to-	.	.	.	.	.	.
[8F#	-mor-	.	.	.	.	.	.
=65	=65	=65	=65	=65	=65	=65	=65
8F#]	_	1DM	newline	voice	.	121.547	D:maj
4AA	-ow	.	.	.	.	.	.
8r	.	.	.	.	.	.	.
8D	Ho-	.	.	.	.	.	.
8E	-ping	.	.	.	.	.	.
8F#	all	.	.	.	.	.	.
8G	the	.	.	.	.	.	.
=66	=66	=66	=66	=66	=66	=66	=66
8A	ver-	1F#Mm	.	voice	.	123.428	F#:7
4d	-ses	.	.	.	d	.	.
4d	rhyme	.	.	.	A	.	.
4r	.	.	.	.	.	.	.
[8G	and	.	.	.	.	.	.
=67	=67	=67	=67	=67	=67	=67	=67
8G]	_	1GM	.	voice	.	125.309	G:maj
8G	the	.	.	.	.	.	.
8G	ver-	.	.	.	.	.	.
8G	-y	.	.	.	.	.	.
4G	best	.	.	.	.	.	.
4A	of	.	.	.	.	.	.
=68	=68	=68	=68	=68	=68	=68	=68
8G	chor-	1AM	.	voice	.	127.19	A:maj
4F#	-us-	.	.	.	.	.	.
4E	-es	.	.	.	d	.	.
4F#	to	.	.	.	.	.	.
8r	.	.	.	.	.	.	.
=69	=69	=69	=69	=69	=69	=69	=69
8r	.	1Bm	newline	voice	.	129.071	B:min
8F#	fol-	.	.	.	.	.	.
8B	-low	.	.	.	.	.	.
4c#	all	.	.	.	.	.	.
4d	the	.	.	.	.	.	.
[8c#	doubt	.	.	.	.	.	.
=70	=70	=70	=70	=70	=70	=70	=70
8c#]	_	1Bm	.	voice	.	130.968	B:min(11)/7
4c#	and	.	.	.	.	.	.
4d	sad-	.	.	.	.	.	.
4e	-ness	.	.	.	D	.	.
8r	.	.	.	.	.	.	.
=71	=71	=71	=71	=71	=71	=71	=71
8d	I	1Bm	.	voice	.	132.865	B:min/b7
4d	know	.	.	.	.	.	.
8d	that	.	.	.	.	.	.
8e	bet-	.	.	.	.	.	.
4f#	-ter	.	.	.	.	.	.
[8e	things	.	.	.	.	.	.
=72	=72	=72	=72	=72	=72	=72	=72
8e]	_	1EMm	.	voice	.	134.762	E:7
4e	are	.	.	.	.	.	.
4B	on	.	.	.	.	.	.
4d	the	.	.	.	.	.	.
[8c#	way	.	.	.	.	.	.
=73	=73	=73	=73	=73	=73	=73	=73
4c#]	_	1AM	newline	voice	.	136.659	A:maj
4r	.	.	.	.	.	.	.
2r	.	.	.	.	.	.	.
=74	=74	=74	=74	=74	=74	=74	=74
8r	.	1GM	.	voice	.	138.502	G:maj
8g	I	.	.	.	.	.	.
8g	know	.	.	.	.	.	.
8g	you've	.	.	.	.	.	.
8g	got	.	.	.	.	.	.
8g	a	.	.	.	.	.	.
8g	lot	.	.	.	.	.	.
8g	of	.	.	.	.	.	.
=75	=75	=75	=75	=75	=75	=75	=75
*>Letter>C	*>Letter>C	*>Letter>C	*>Letter>C	*>Letter>C	*>Letter>C	*>Letter>C	*>Letter>C
*>Label>Chorus	*>Label>Chorus	*>Label>Chorus	*>Label>Chorus	*>Label>Chorus	*>Label>Chorus	*>Label>Chorus	*>Label>Chorus
4g	good	1DM	newline	voice	.	140.345	D:maj
4f#	things	.	.	.	.	.	.
8e	hap-	.	.	.	.	.	.
8e	-pen-	.	.	.	.	.	.
8f#	-ning	.	.	.	.	.	.
[8g	up	.	.	.	.	.	.
=76	=76	=76	=76	=76	=76	=76	=76
8g]	_	2GM	.	voice	.	142.211	G:maj
4f#	a-	.	.	.	.	.	.
4.e	-head	.	.	.	C	.	.
.	.	2AM	.	voice	.	143.144	A:maj
8r	.	.	.	.	.	.	.
8A	The	.	.	.	.	.	.
=77	=77	=77	=77	=77	=77	=77	=77
4g	past	1DM	.	voice	.	144.077	D:maj
4f#	is	.	.	.	.	.	.
8e	gone	.	.	.	.	.	.
4f#	it's	.	.	.	.	.	.
[8g	all	.	.	.	.	.	.
=78	=78	=78	=78	=78	=78	=78	=78
8g]	_	2GM	.	voice	.	145.943	G:maj
4f#	been	.	.	.	.	.	.
4.e	said	.	.	.	C	.	.
.	.	2AM	.	voice	.	146.876	A:maj
8r	.	.	.	.	.	.	.
8A	So	.	.	.	.	.	.
=79	=79	=79	=79	=79	=79	=79	=79
4g	here's	1DM	newline	voice	.	147.809	D:maj
8f#	to	.	.	.	.	.	.
4e	what	.	.	.	.	.	.
4f#	the	.	.	.	.	.	.
[8g	fu-	.	.	.	.	.	.
=80	=80	=80	=80	=80	=80	=80	=80
8g]	_	2GM	.	voice	.	149.649	G:maj
4f#	-ture	.	.	.	.	.	.
4.e	brings	.	.	.	F	.	.
.	.	2AM	.	voice	.	150.569	A:maj
8r	.	.	.	.	.	.	.
8A	I	.	.	.	.	.	.
=81	=81	=81	=81	=81	=81	=81	=81
4g	know	1DM	.	voice	.	151.489	D:maj
8f#	to-	.	.	.	.	.	.
4e	-mor-	.	.	.	.	.	.
4f#	-row	.	.	.	.	.	.
[8g	you'll	.	.	.	.	.	.
=82	=82	=82	=82	=82	=82	=82	=82
8g]	_	2GM	.	voice	.	153.33	G:maj
2f#	find	.	.	.	.	.	.
.	.	2AM	.	voice	.	154.25	A:maj
8f#	bet-	.	.	.	.	.	.
4e	-ter	.	.	.	.	.	.
=83	=83	=83	=83	=83	=83	=83	=83
*>Letter>A	*>Letter>A	*>Letter>A	*>Letter>A	*>Letter>A	*>Letter>A	*>Letter>A	*>Letter>A
*>Label>Outro	*>Label>Outro	*>Label>Outro	*>Label>Outro	*>Label>Outro	*>Label>Outro	*>Label>Outro	*>Label>Outro
2d	things	1DM	newline	guitar	F	155.17	D:maj
2r	.	.	.	.	.	.	.
=84	=84	=84	=84	=84	=84	=84	=84
2.r	.	1DM	.	guitar	.	157.034	D:maj/3
8r	.	.	.	.	.	.	.
8A	I	.	.	.	.	.	.
=85	=85	=85	=85	=85	=85	=85	=85
4g	know	1GM	.	guitar	.	158.898	G:maj
8g	to-	.	.	.	.	.	.
4g	-mor-	.	.	.	.	.	.
4g	-row	.	.	.	.	.	.
[8g	you'll	.	.	.	.	.	.
=86	=86	=86	=86	=86	=86	=86	=86
8g]	_	1AM	.	guitar	.	160.762	A:maj
2f#	find	.	.	.	.	.	.
8f#	bet-	.	.	.	.	.	.
8e	-ter	.	.	.	.	.	.
[8d	things	.	.	.	F	.	.
=87	=87	=87	=87	=87	=87	=87	=87
2d]	_	1DM	newline	guitar	.	162.626	D:maj
2r	.	.	.	.	.	.	.
=88	=88	=88	=88	=88	=88	=88	=88
2r	.	1DM	.	guitar	.	164.5	D:maj/3
4r	.	.	.	.	.	.	.
8r	.	.	.	.	.	.	.
8A	I	.	.	.	.	.	.
=89	=89	=89	=89	=89	=89	=89	=89
4g	hope	1GM	.	guitar	.	166.374	G:maj
8g	to-	.	.	.	.	.	.
4g	-mor-	.	.	.	.	.	.
4g	-row	.	.	.	.	.	.
[8g	you'll	.	.	.	.	.	.
=90	=90	=90	=90	=90	=90	=90	=90
8g]	_	1AM	.	guitar	.	168.248	A:maj
2f#	find	.	.	.	.	.	.
4f#	bet-	.	.	.	.	.	.
[8e	-ter	.	.	.	.	.	.
=91	=91	=91	=91	=91	=91	=91	=91
4e]	_	1DM	newline	guitar	.	170.121	D:maj
2d	things	.	.	.	F	.	.
4r	.	.	.	.	.	.	.
=92	=92	=92	=92	=92	=92	=92	=92
2r	.	1DM	.	guitar	.	171.968	D:maj/3
4r	.	.	.	.	.	.	.
8r	.	.	.	.	.	.	.
8A	I	.	.	.	.	.	.
=93	=93	=93	=93	=93	=93	=93	=93
4g	know	1GM	.	guitar	.	173.814	G:maj
8g	to-	.	.	.	.	.	.
4g	-mor-	.	.	.	.	.	.
4g	-row	.	.	.	.	.	.
[8g	you'll	.	.	.	.	.	.
=94	=94	=94	=94	=94	=94	=94	=94
8g]	_	1AM	.	guitar	.	175.66	A:maj
2f#	find	.	.	.	.	.	.
8f#	bet-	.	.	.	.	.	.
8e	-ter	.	.	.	.	.	.
[8d	things	.	.	.	F	.	.
=95	=95	=95	=95	=95	=95	=95	=95
2d]	things	1AM	.	guitar	F	177.506	A:maj
2r	.	.	.	.	.	.	.
=96	=96	=96	=96	=96	=96	=96	=96
1r	.	1AM	newline	guitar	.	179.352	A:maj
r;	.	1r;	.	r	.	184.181	N.C.
r;	.	1r;	.	r	.	186.096	N.C.
*-	*-	*-	*-	*-	*-	*-	*-
!!!BillboardChartDate: 1981/12/05
!!!BillboardPeak: 92
!!!BillboardWeeksOnChart: 8
!!!COC: The Kinks
!!!ENC: Nathaniel Condit-Schultz
!!!EST: Awating manual error checking and editing.
!!!OTL: Better Things
!!!RDF**chordsym: original McGill chord annotation + (implied pitch class set, with bass pitch in first position)
!!!RDF**harmony: **recip + pitch class of root + harmonic quality
!!!RDF**leadinstrument: original McGill primary instrumentation annotation
!!!RDF**phrase: newline = linebreak in original McGill transcription
!!!RDF**timestamp: McGill audio timestamp in seconds
!!!RDT: 2017/01/12/
!!!SampleActualRank: 97
!!!SampleID#: 0443
!!!SampleTargetRank: 99
